dist/images/icons/icon-telegram.svg

<svg width="15" height="15" viewBox="0 0 15 15" fill="none" xmlns="http://www.w3.org/2000/svg">
<path d="M9.31801 14.3299C9.05868 14.3299 8.81931 14.1914 8.70237 13.9704L6.66079 10.112C6.54867 9.90012 6.56793 9.64662 6.71031 9.45097L10.0059 5.22987L5.53819 8.34337C5.33115 8.47857 5.06288 8.49547 4.83864 8.39017L0.756163 6.46162C0.511284 6.34527 0.362017 6.10282 0.37715 5.84412C0.391595 5.58542 0.568376 5.35922 0.825638 5.27017L13.8951 0.720173C14.1461 0.633723 14.4288 0.690273 14.6194 0.870323C14.8092 1.04907 14.8711 1.31687 14.7783 1.55477L9.96322 13.9048C9.8683 14.1479 9.62961 14.3149 9.35584 14.3286C9.34346 14.3292 9.33039 14.3299 9.31801 14.3299Z" fill="black"/>
</svg>

<svg width="15" height="15" fill="none" xmlns="http://www.w3.org/2000/svg"><path d="M9.318 14.33a.694.694 0 01-.616-.36l-2.041-3.858a.622.622 0 01.05-.661l3.295-4.221-4.468 3.113a.725.725 0 01-.7.047L.757 6.462a.646.646 0 01-.379-.618.653.653 0 01.449-.574L13.896.72a.719.719 0 01.723.15c.19.18.252.447.16.685l-4.816 12.35a.684.684 0 01-.607.424h-.038z" fill="#000"/></svg>
